app/images/brands/coca-cola.svg

<svg width="80" height="27" viewBox="0 0 80 27" fill="none" xmlns="http://www.w3.org/2000/svg">
<path d="M30.7208 22.851C27.744 20.9334 23.7041 20.5969 17.1889 22.4045C10.2432 24.0367 7.92742 25.083 4.88612 22.9826C3.71772 21.9508 3.29882 20.2895 3.61162 17.8965C4.33712 13.9955 6.29772 10.2414 9.78032 6.07717C11.7241 3.91097 13.5273 2.05197 15.9082 1.30547C17.733 0.837172 17.5624 2.27127 17.3416 2.47637C17.1086 2.47637 16.7172 2.51307 16.4147 2.71047C16.1692 2.90087 15.4953 3.51567 15.4591 4.34267C15.4069 5.60867 16.717 5.34517 17.2821 4.65007C17.8912 3.86677 18.7914 2.36677 18.0833 0.968772C17.7865 0.471172 17.2737 0.127272 16.637 0.010172C14.4568 -0.114428 12.4264 0.924872 10.5524 2.07387C6.45422 4.92077 3.17592 8.86557 1.32092 13.1836C0.251523 15.7889 -0.715677 19.5209 0.734023 22.5584C1.85562 24.666 4.18392 25.7855 6.96182 25.5514C8.91012 25.3467 11.266 24.717 12.8505 24.3368C14.4351 23.9559 22.5459 21.1679 25.2109 26.0204C25.2109 26.0204 26.0971 24.3001 28.3118 24.2634C30.1326 24.0954 32.7594 24.7905 34.6722 26.1954C34.0349 25.237 32.2281 23.8245 30.7208 22.851Z" fill="#E61A27"/>
<path d="M18.0159 6.56745C16.4989 5.57215 13.4499 7.47495 11.0078 10.7389C8.77458 13.6666 7.81028 17.0693 8.85978 18.6428C10.4208 20.4943 13.3189 17.8012 14.5513 16.3597L14.7103 16.1912C15.5484 15.291 16.1958 14.2078 16.8226 13.1684C16.8226 13.1684 17.3986 12.217 17.4261 12.173C17.7821 12.1074 18.2109 12.0049 18.6941 11.8658C18.6872 11.8876 16.8454 14.9834 17.0333 16.52C17.0918 16.9888 17.0472 18.7013 18.7191 19.2208C20.9475 19.5943 22.7269 17.8669 24.2967 16.33C24.2967 16.33 24.5642 16.0741 24.7155 15.928C24.6772 16.0812 24.6273 16.2857 24.6273 16.2857C23.9749 18.5545 24.8543 19.0306 25.4044 19.2062C27.0669 19.6896 29.053 17.2743 29.0595 17.2743C29.0079 18.0351 28.8574 18.6644 29.6594 19.1695C30.4163 19.4405 31.1824 19.0273 31.7648 18.6394C33.8623 17.1612 35.5521 14.8474 36.9169 12.8475H36.0463C36.036 12.8475 33.8981 15.9463 32.5098 16.6198C32.5076 16.6198 32.2549 16.7495 32.1094 16.6469C31.9291 16.4932 32.0002 16.1735 32.1115 15.9471C32.1185 15.9324 37.4719 6.64745 37.4719 6.64745H34.9443C34.9443 6.64745 34.6682 7.09415 34.6457 7.12345C34.6287 7.10885 34.5882 7.03205 34.5602 6.99525C32.9942 4.82905 29.4479 8.16105 26.778 12.0251C25.7501 13.5109 24.4414 15.1838 23.0844 16.3913C23.0844 16.3913 21.074 18.2341 20.2151 16.9101C19.9011 16.3538 19.9977 15.5405 20.1748 15.0064C21.1749 12.1594 22.8982 9.57565 24.8593 8.01675C25.4128 7.58525 26.0146 7.46045 26.3131 7.64345C26.5977 7.81205 26.6436 8.22885 26.4636 8.51435C26.0069 8.49975 25.6409 8.63855 25.3435 8.94595C24.7575 9.56075 24.5539 10.1537 24.7402 10.71C25.6453 11.998 27.4504 9.45105 27.3631 7.89955C27.3319 7.34325 27.0352 6.81645 26.5922 6.56005C25.9321 6.16505 24.9251 6.26735 24.2734 6.58225C23.4009 6.91145 22.02 8.06035 21.2139 8.95335C20.1991 10.0733 18.4586 11.3173 17.9144 11.178C18.0923 10.7022 19.5624 7.69435 18.0159 6.56745ZM30.202 11.0171C30.6937 10.3366 32.1248 8.51415 32.4737 8.20685C33.6471 7.17455 34.1161 7.62875 34.1567 7.95055C33.0616 9.91185 31.7691 12.1588 30.5539 14.1788C30.5564 14.1716 30.1736 14.7569 30.1736 14.7569C29.6369 15.5763 29.0965 16.279 28.215 16.7692C28.0893 16.8061 27.8821 16.8208 27.7442 16.7179C27.5782 16.6081 27.5127 16.4251 27.5314 16.2348C27.5843 15.6056 28.2249 13.6812 30.202 11.0171ZM16.4515 12.1953C16.4515 12.1953 16.4294 12.2614 16.4186 12.283C16.4158 12.283 15.3165 14.0758 15.3165 14.0758C14.6531 14.9615 13.8248 16.0742 12.7894 16.6082C12.4825 16.7106 12.0582 16.7767 11.842 16.5061C11.3837 15.9571 11.6199 15.1959 11.8118 14.5813L11.8798 14.3617C12.43 12.8689 13.3029 11.5513 14.1527 10.3291C14.1633 10.3219 14.1871 10.3146 14.1957 10.3146C14.1978 10.3219 14.2012 10.3219 14.2026 10.3366C14.7358 11.361 15.7356 11.8365 16.4833 12.0564C16.4878 12.0564 16.4927 12.0637 16.4927 12.0784C16.4928 12.1002 16.4806 12.1297 16.4515 12.1953ZM17.4929 10.0805C17.488 10.0951 17.0033 11.2075 17.0033 11.2075C16.9332 11.266 16.8224 11.2368 16.6954 11.2075L16.4778 11.1707C15.7945 10.9586 15.2791 10.5048 15.1202 9.96325C14.9011 8.90935 15.8014 8.08235 16.198 7.78245C16.5786 7.51875 17.1703 7.37975 17.5139 7.65065C17.7258 7.89955 17.8061 8.22145 17.8061 8.57295C17.8062 9.04845 17.6594 9.58265 17.4929 10.0805ZM49.4469 13.476C49.2031 12.9492 48.6246 12.6125 48.008 12.649C46.0057 12.8321 44.0472 14.4787 43.0188 16.8424C42.4792 18.0574 42.1847 19.0599 41.9916 20.6553C42.6143 19.9383 43.8843 18.7601 45.3255 18.116C45.3255 18.116 45.5216 16.5865 46.5216 15.2252C46.9 14.6615 47.6572 13.7541 48.5075 13.9955C49.2505 14.2444 48.9893 16.301 48.0019 18.2912C47.2713 19.7551 46.1533 21.2192 45.0221 22.2289C44.022 23.0778 42.5423 24.1024 41.2477 23.3121C40.4323 22.8293 40.0164 21.819 40.1042 20.5164C40.4938 16.8207 42.1762 13.6737 44.5837 10.0877C47.0661 6.75775 49.8025 3.34005 53.4888 1.51745C54.2407 1.13695 54.937 1.04915 55.5389 1.28335C55.5389 1.28335 52.0785 3.18615 50.429 6.70645C50.0094 7.59945 49.4258 8.80665 50.0135 9.87525C50.3206 10.4314 50.8658 10.4754 51.3049 10.4461C53.3268 9.97755 54.6331 8.08945 55.7004 6.36245C56.3192 5.05245 56.8692 3.74975 56.8692 2.30065C56.8692 2.12505 56.8601 1.89095 56.8453 1.71515C57.8112 1.20305 59.7921 2.11035 59.7921 2.11035C61.34 2.62285 64.6359 5.14785 65.7477 5.63065C66.29 5.00135 67.1812 4.05005 67.6831 3.57425L66.9566 3.12775C65.7936 2.41785 64.5643 1.74445 63.3544 1.07855C60.6065 -0.421546 58.3697 0.105254 57.2314 0.515154C56.784 0.676054 56.3752 0.815154 56.3752 0.815154C55.5304 -0.106946 54.1448 -0.0193461 53.1239 0.229654C49.4525 1.28345 46.0438 3.85215 42.3893 8.30925C39.7025 11.8003 38.0359 14.8156 37.1476 17.7941C36.4629 19.7993 36.2548 22.7486 37.926 24.4978C39.3469 25.9831 41.231 25.6613 42.5614 25.1273C45.4441 23.7075 48.035 20.6482 49.326 17.1279C49.6376 16.0815 49.9833 14.6032 49.4469 13.476ZM56.0756 2.44715C55.694 6.82365 52.2921 9.39265 51.4503 9.59725C50.9402 9.69955 50.0698 9.47285 50.8469 7.63615C51.9911 5.16225 53.9448 3.06205 56.0408 1.98615C56.0919 2.16915 56.0905 2.28595 56.0756 2.44715ZM76.2554 3.00315C74.4255 4.04255 72.5285 4.71565 70.2323 4.48155C69.596 5.19895 68.9763 5.93805 68.4052 6.69905C71.6281 7.51875 75.0448 5.69645 76.9504 3.96215C78.9663 2.21295 79.9999 0.0102539 79.9999 0.0102539C79.9999 0.0102539 78.4889 1.73725 76.2554 3.00315ZM41.6728 6.64765H39.2724L37.9184 8.84765H40.3183L41.6728 6.64765Z" fill="#E61A27"/>
<path d="M70.2227 23.0547C69.9646 23.2303 69.602 23.0953 69.7375 22.6929C70.0753 21.6683 71.4178 19.5803 71.4178 19.5803L75.1574 12.9477H72.5959C72.4741 13.1477 72.2138 13.6069 72.2138 13.6069C72.0953 13.4095 71.7409 12.9706 71.595 12.8757C70.9692 12.4802 70.0512 12.6672 69.4178 13.0257C66.6639 14.636 64.6546 17.8175 63.0699 20.2986C63.0699 20.2986 61.4018 23.0566 60.4759 23.2617C59.753 23.3203 59.8276 22.3465 59.8589 22.1196C60.1384 20.48 60.7875 18.9213 61.4414 17.5088C62.7716 16.5867 64.2895 15.3792 65.669 14.0546C68.6628 11.1928 71.1866 7.95067 71.5555 7.22617C71.5555 7.22617 71.1562 7.30677 70.6847 7.32127C68.3816 10.5341 63.6684 15.2035 62.2395 15.8986C62.8725 14.376 66.9623 7.10897 70.4425 3.63277L70.9901 3.10567C71.837 2.27867 72.7144 1.42977 73.3982 1.29067C73.4704 1.28337 73.5634 1.29067 73.6437 1.45927C73.6742 2.10317 73.4345 2.57897 73.1595 3.12047L72.7741 3.91097C72.7741 3.91097 73.32 3.80847 73.6786 3.69107C74.0945 2.90837 74.5553 2.02987 74.3854 0.983568C74.3288 0.646868 74.085 0.390768 73.7665 0.332168C72.7283 0.134568 71.5969 0.902768 70.6865 1.52507L70.6498 1.54687C65.9696 5.21347 62.0177 10.4975 58.5626 17.7136C58.3122 17.9036 57.3447 18.1307 57.1803 18.0208C57.5215 17.3184 57.9511 16.3741 58.166 15.3495C58.2032 15.0566 58.2378 14.7568 58.2378 14.4641C58.2378 13.8342 58.0866 13.2416 57.5224 12.832C56.8608 12.5026 56.0431 12.6564 55.4917 12.905C53.022 13.9296 51.1761 16.462 49.844 18.5475C49.1276 19.8725 48.4133 21.2916 48.2155 22.9166C48.0762 24.1898 48.3598 25.0096 49.0838 25.4195C49.8282 25.7998 50.7652 25.4045 51.1333 25.2144C53.6354 23.897 55.3837 21.2552 56.7617 18.84C56.8165 18.8328 57.5689 18.811 58.1381 18.6644C58.1456 18.6644 58.1488 18.6644 58.1614 18.672C58.1288 18.7814 57.8347 19.6599 57.8347 19.6599C56.9613 22.2211 56.5574 23.9631 57.3824 24.9949C58.5613 26.4513 60.513 24.9439 62.1007 22.9529C61.7599 25.3386 62.9963 25.7121 63.9389 25.5293C65.0216 25.2367 66.2281 24.0801 66.788 23.4875C66.6082 24.1826 66.657 25.427 67.642 25.5512C68.317 25.676 68.8223 25.3088 69.4068 24.994C71.5036 23.8522 74.0137 20.0475 74.6654 18.9475H73.8109C72.8844 20.3478 71.7055 22.1834 70.2227 23.0547ZM51.401 22.7999C51.268 22.6022 51.2239 22.3862 51.2195 22.1526C51.194 20.7175 52.738 18.1477 53.8277 16.7477H53.83C54.2866 17.7477 55.3208 18.3905 55.9451 18.6614C55.1698 20.3887 52.5105 24.0879 51.401 22.7999ZM56.3828 17.8892C56.309 17.9408 55.0049 17.5014 54.7528 16.2939C54.539 15.2543 55.2549 14.442 55.9475 14.0326C56.2448 13.7982 56.6926 13.718 57.0211 13.8346C57.326 14.0399 57.4086 14.4061 57.4086 14.8006C57.4086 15.0426 57.3765 15.2912 57.3482 15.518L57.342 15.5694C57.1235 16.3807 56.8011 17.1605 56.3828 17.8892ZM66.8424 22.3389C66.8413 22.3389 66.5949 22.5584 66.5949 22.5584C66.2431 22.873 65.8811 23.2096 65.4441 23.0412C65.3234 22.9974 65.2385 22.8365 65.2181 22.7117C65.1982 21.8115 65.6035 20.9774 65.9967 20.1651L66.0975 19.9528C67.2283 18.0647 68.5427 15.8399 70.4731 14.2959C70.7983 14.0612 71.1513 13.864 71.5239 14.0178C71.6096 14.0982 71.7094 14.2373 71.7094 14.3762C71.7094 14.4203 71.6702 14.5373 71.6477 14.5738C71.1085 15.4451 70.5952 16.3597 70.0959 17.2379C69.1201 18.9724 68.1078 20.7651 66.8424 22.3389Z" fill="#E61A27"/>
</svg>

<svg width="80" height="27" fill="none" xmlns="http://www.w3.org/2000/svg"><path d="M30.72 22.851c-2.976-1.918-7.016-2.254-13.531-.447-6.946 1.633-9.262 2.679-12.303.579-1.168-1.032-1.587-2.694-1.274-5.087.725-3.9 2.686-7.655 6.168-11.819 1.944-2.166 3.747-4.025 6.128-4.772 1.825-.468 1.654.966 1.434 1.171-.233 0-.625.037-.927.234-.246.19-.92.806-.956 1.633-.052 1.266 1.258 1.002 1.823.307.61-.783 1.51-2.283.801-3.681-.296-.498-.81-.842-1.446-.959-2.18-.124-4.21.915-6.085 2.064-4.098 2.847-7.376 6.792-9.231 11.11C.25 15.789-.716 19.52.734 22.558c1.122 2.108 3.45 3.227 6.228 2.993 1.948-.204 4.304-.834 5.889-1.214 1.584-.381 9.695-3.17 12.36 1.683 0 0 .886-1.72 3.1-1.757 1.822-.168 4.448.527 6.361 1.932-.637-.958-2.444-2.37-3.951-3.344z" fill="#E61A27"/><path d="M18.016 6.567c-1.517-.995-4.566.908-7.008 4.172-2.233 2.928-3.198 6.33-2.148 7.904 1.56 1.851 4.459-.842 5.691-2.283l.16-.169c.837-.9 1.485-1.983 2.112-3.023l.603-.995c.356-.066.785-.168 1.268-.307-.007.022-1.849 3.117-1.66 4.654.058.469.013 2.181 1.685 2.7 2.229.374 4.008-1.353 5.578-2.89l.418-.402-.088.358c-.652 2.268.227 2.745.777 2.92 1.663.484 3.649-1.932 3.655-1.932-.051.761-.202 1.39.6 1.895.757.271 1.523-.142 2.106-.53 2.097-1.478 3.787-3.792 5.152-5.791h-.87c-.011 0-2.149 3.098-3.537 3.772-.002 0-.255.13-.4.027-.18-.154-.11-.473.002-.7.006-.015 5.36-9.3 5.36-9.3h-2.528s-.276.447-.298.476c-.017-.014-.058-.091-.086-.128-1.566-2.166-5.112 1.166-7.782 5.03-1.028 1.486-2.337 3.159-3.694 4.366 0 0-2.01 1.843-2.869.52-.314-.557-.217-1.37-.04-1.905 1-2.847 2.723-5.43 4.684-6.99.554-.43 1.156-.556 1.454-.373.285.17.33.586.15.871-.456-.014-.822.125-1.12.432-.585.615-.79 1.208-.603 1.764.905 1.288 2.71-1.259 2.623-2.81-.031-.557-.328-1.084-.77-1.34-.66-.395-1.668-.293-2.32.022-.872.33-2.253 1.478-3.06 2.371-1.014 1.12-2.754 2.364-3.299 2.225.178-.476 1.648-3.484.102-4.61zm12.186 4.45c.492-.68 1.923-2.503 2.272-2.81 1.173-1.032 1.642-.578 1.683-.256a231.413 231.413 0 01-3.603 6.228c.002-.007-.38.578-.38.578-.537.82-1.078 1.522-1.959 2.012-.126.037-.333.052-.47-.051a.499.499 0 01-.214-.483c.053-.63.694-2.554 2.671-5.218zm-13.75 1.178s-.023.066-.033.088c-.003 0-1.103 1.793-1.103 1.793-.663.885-1.491 1.998-2.527 2.532-.306.103-.73.169-.947-.102-.458-.549-.222-1.31-.03-1.925l.068-.22c.55-1.492 1.423-2.81 2.273-4.032a.112.112 0 01.043-.014c.002.007.005.007.007.022.533 1.024 1.533 1.5 2.28 1.72.005 0 .01.007.01.021a.36.36 0 01-.041.117zm1.04-2.114c-.004.014-.489 1.127-.489 1.127-.07.058-.18.029-.308 0l-.217-.037c-.684-.212-1.199-.666-1.358-1.208-.219-1.054.681-1.88 1.078-2.18.38-.264.972-.403 1.316-.132.212.249.292.57.292.922 0 .475-.147 1.01-.313 1.508zm31.955 3.395c-.244-.527-.822-.864-1.439-.827-2.002.183-3.96 1.83-4.99 4.193-.539 1.215-.833 2.218-1.026 3.813.622-.717 1.892-1.895 3.334-2.539 0 0 .196-1.53 1.196-2.89.378-.565 1.135-1.472 1.986-1.23.742.248.481 2.305-.506 4.295-.73 1.464-1.849 2.928-2.98 3.938-1 .849-2.48 1.873-3.774 1.083-.816-.483-1.232-1.493-1.144-2.796.39-3.695 2.072-6.842 4.48-10.428 2.482-3.33 5.218-6.748 8.905-8.57.752-.381 1.448-.469 2.05-.235 0 0-3.46 1.903-5.11 5.423-.42.893-1.003 2.1-.416 3.17.308.555.853.6 1.292.57 2.022-.468 3.328-2.357 4.395-4.084.62-1.31 1.17-2.612 1.17-4.061 0-.176-.01-.41-.025-.586.966-.512 2.947.395 2.947.395 1.548.513 4.844 3.038 5.956 3.52a35.053 35.053 0 011.935-2.056l-.726-.446c-1.163-.71-2.393-1.384-3.603-2.05-2.748-1.5-4.984-.973-6.123-.563-.447.161-.856.3-.856.3-.845-.922-2.23-.834-3.251-.585-3.672 1.053-7.08 3.622-10.735 8.08-2.687 3.49-4.353 6.506-5.241 9.484-.685 2.005-.893 4.955.778 6.704 1.42 1.485 3.305 1.163 4.635.63 2.883-1.42 5.474-4.48 6.765-8 .312-1.047.657-2.525.12-3.652zm6.629-11.029c-.382 4.377-3.784 6.946-4.626 7.15-.51.103-1.38-.124-.603-1.96 1.144-2.475 3.098-4.575 5.194-5.65.05.182.05.299.035.46zm20.18.556c-1.83 1.04-3.728 1.713-6.024 1.479a35.275 35.275 0 00-1.827 2.217c3.223.82 6.64-1.003 8.545-2.737C78.966 2.213 80 .01 80 .01s-1.511 1.727-3.745 2.993zM41.672 6.648h-2.4l-1.355 2.2h2.4l1.355-2.2z" fill="#E61A27"/><path d="M70.223 23.055c-.258.175-.621.04-.486-.362.338-1.025 1.68-3.113 1.68-3.113l3.74-6.632h-2.561c-.122.2-.382.659-.382.659-.119-.197-.473-.636-.619-.731-.626-.396-1.544-.209-2.177.15-2.754 1.61-4.763 4.791-6.348 7.273 0 0-1.668 2.758-2.594 2.963-.723.058-.648-.916-.617-1.142.28-1.64.928-3.199 1.582-4.611a35.414 35.414 0 004.228-3.454c2.994-2.862 5.518-6.104 5.886-6.829 0 0-.399.08-.87.095-2.303 3.213-7.017 7.883-8.446 8.578.634-1.523 4.723-8.79 8.203-12.266l.548-.527c.847-.827 1.724-1.676 2.408-1.815.072-.008.165 0 .246.168.03.644-.21 1.12-.485 1.661l-.385.791s.546-.103.905-.22c.415-.783.876-1.661.706-2.707a.777.777 0 00-.619-.652c-1.038-.197-2.17.57-3.08 1.193l-.036.022c-4.68 3.666-8.632 8.95-12.087 16.167-.25.19-1.218.417-1.383.307.342-.703.771-1.647.986-2.671a7.15 7.15 0 00.072-.886c0-.63-.151-1.222-.716-1.632-.661-.33-1.479-.176-2.03.073-2.47 1.025-4.316 3.557-5.648 5.643-.716 1.325-1.43 2.744-1.629 4.369-.139 1.273.145 2.093.869 2.502.744.38 1.681-.015 2.05-.205 2.501-1.317 4.25-3.959 5.628-6.374.054-.007.807-.029 1.376-.176.008 0 .01 0 .023.008-.032.11-.326.988-.326.988-.874 2.561-1.278 4.303-.453 5.335 1.18 1.456 3.131-.051 4.719-2.042-.341 2.386.895 2.76 1.838 2.576 1.083-.292 2.29-1.449 2.849-2.041-.18.695-.131 1.939.854 2.063.675.125 1.18-.242 1.765-.557 2.097-1.142 4.607-4.947 5.258-6.046h-.854c-.927 1.4-2.106 3.235-3.588 4.107zM51.4 22.8a1.153 1.153 0 01-.182-.647c-.025-1.435 1.519-4.005 2.609-5.405h.002c.457 1 1.49 1.642 2.115 1.913-.775 1.728-3.434 5.427-4.544 4.139zm4.982-4.91c-.074.05-1.378-.389-1.63-1.596-.214-1.04.502-1.852 1.194-2.261.298-.235.746-.315 1.074-.198.305.205.388.571.388.966 0 .242-.032.49-.06.717l-.007.051a9.756 9.756 0 01-.96 2.32zm10.46 4.449c-.002 0-.248.22-.248.22-.352.314-.714.65-1.15.482-.122-.044-.206-.204-.227-.33-.02-.9.385-1.734.779-2.546l.1-.212c1.131-1.888 2.446-4.113 4.376-5.657.325-.235.678-.432 1.05-.278.087.08.186.22.186.358a.624.624 0 01-.061.198c-.54.871-1.053 1.786-1.552 2.664-.976 1.734-1.988 3.527-3.254 5.1z" fill="#E61A27"/></svg>
